assets/images/arrow.svg

<svg height="60" viewBox="0 0 30 60" width="30" xmlns="http://www.w3.org/2000/svg"><path d="m40.3626796 29.3841365c-1.2766161-.7237917-2.5421311-1.4719206-3.8510849-2.1314617-4.0011897-2.015616-8.018307-3.9991068-12.0339764-5.9860048-1.037703-.5135173-2.1014693-.9754394-3.1362764-1.4957711-.2606323-.1309348-.5082331-.3631127-.6602687-.6123268-.099909-.1635467-.0873601-.4745775.0019306-.6566206.0863949-.1766889.3180681-.3309874.5164383-.3884235.2070579-.0603565.466725-.0423469.6752309.0272578.5849749.1946985 1.1646407.4117873 1.7293442.6595411 5.8014838 2.545196 11.4953361 5.3186758 17.1163079 8.2445073.9571.4984281 1.8755879 1.0761959 2.7902145 1.6534769.4686556.2959416.6013851.9194635.3981884 1.4568314-.2924875.7748999-.8123043 1.369217-1.6043372 1.5493131-1.3161935.2998357-2.4084363 1.0172996-3.5325341 1.6958238-2.1178795 1.2781956-4.2680966 2.5038225-6.3579823 3.8272854-2.0242448 1.2820895-3.9847795 2.6644488-5.9815132 3.9908322-.4474189.2978887-.9170399.5655991-1.3948659.8118927-.3021405.1557588-.8026512-.1007565-.9662704-.4380716-.1578274-.3256332-.0405429-.6128135.1438304-.864948.1346601-.1844768.3161374-.3436429.5000281-.481392 2.4151934-1.8082622 4.7652288-3.7041387 7.3701047-5.2466374 2.792145-1.6529901 5.5447126-3.3741247 8.3122424-5.0694617.0593663-.0360193.0878428-.1226601.1317642-.1864238-.0535744-.1221733-.0733632-.3066502-.1665151-.3592187zm-37.87056535 1.7649261c-4.23817218.2102744-8.48744537.1596528-12.71837775.5821485-1.1477478.1148721-2.3128711.065224-3.4697893.0623035-.2992446-.0004867-.6231045-.0584095-.8880807-.1888575-.172307-.0846939-.3040711-.3324477-.3730905-.5349341-.0878427-.257002.1616887-.7155169.3808129-.7680855.2968313-.0715517.5984892-.1513781.9011124-.1684142 3.386773-.1922648 6.77451137-.383556 10.16273238-.5539172 2.92873576-.1474841 5.86133275-.2248767 8.78717261-.4113005 2.61790751-.1674407 5.23291911-.3256332 7.85903171-.32612 2.3915435-.0004867 4.7830869-.0764192 7.1746304-.1280142 1.6970064-.0369928 3.3940128-.1474841 5.0895713-.1211999 2.4673199.038453 4.9336745.1659805 7.3995465.2716044.2196069.009735.4406618.126554.6506156.2190358.2673896.1173059.4879618.6717098.3938445 1.0187598-.0834989.3081104-.2466354.5909099-.590284.644452-.3769517.0584096-.7664523.1104914-1.1443693.0842071-4.0866193-.2852333-8.1756518-.1289877-12.2646843-.1119516-3.4712373.0146024-6.9434398.0029205-10.41515974.0029205.00048265.0296915.00048265.059383.00048265.0890745-2.31190579.1124384-4.62429423.2234165-6.93571736.3382886z" fill="#ced4da" fill-rule="evenodd" transform="matrix(-.05233596 .99862953 -.99862953 -.05233596 45.768837 16.618995)"/></svg>

<svg xmlns="http://www.w3.org/2000/svg" width="30" height="60" viewBox="0 0 30 60">
  <path fill="#CED4DA" fill-rule="evenodd" d="M40.3626796,29.3841365 C39.0860635,28.6603448 37.8205485,27.9122159 36.5115947,27.2526748 C32.510405,25.2370588 28.4932877,23.253568 24.4776183,21.26667 C23.4399153,20.7531527 22.376149,20.2912306 21.3413419,19.7708989 C21.0807096,19.6399641 20.8331088,19.4077862 20.6810732,19.1585721 C20.5811642,18.9950254 20.5937131,18.6839946 20.6830038,18.5019515 C20.7693987,18.3252626 21.0010719,18.1709641 21.1994421,18.113528 C21.4065,18.0531715 21.6661671,18.0711811 21.874673,18.1407858 C22.4596479,18.3354843 23.0393137,18.5525731 23.6040172,18.8003269 C29.405501,21.3455229 35.0993533,24.1190027 40.7203251,27.0448342 C41.6774251,27.5432623 42.595913,28.1210301 43.5105396,28.6983111 C43.9791952,28.9942527 44.1119247,29.6177746 43.908728,30.1551425 C43.6162405,30.9300424 43.0964237,31.5243595 42.3043908,31.7044556 C40.9881973,32.0042913 39.8959545,32.7217552 38.7718567,33.4002794 C36.6539772,34.678475 34.5037601,35.9041019 32.4138744,37.2275648 C30.3896296,38.5096543 28.4290949,39.8920136 26.4323612,41.218397 C25.9849423,41.5162857 25.5153213,41.7839961 25.0374953,42.0302897 C24.7353548,42.1860485 24.2348441,41.9295332 24.0712249,41.5922181 C23.9133975,41.2665849 24.030682,40.9794046 24.2150553,40.7272701 C24.3497154,40.5427933 24.5311927,40.3836272 24.7150834,40.2458781 C27.1302768,38.4376159 29.4803122,36.5417394 32.0851881,34.9992407 C34.8773331,33.3462506 37.6299007,31.625116 40.3974305,29.929779 C40.4567968,29.8937597 40.4852733,29.8071189 40.5291947,29.7433552 C40.4756203,29.6211819 40.4558315,29.436705 40.3626796,29.3841365 Z M2.49211425,31.1490626 C-1.74605793,31.359337 -5.99533112,31.3087154 -10.2262635,31.7312111 C-11.3740113,31.8460832 -12.5391346,31.7964351 -13.6960528,31.7935146 C-13.9952974,31.7930279 -14.3191573,31.7351051 -14.5841335,31.6046571 C-14.7564405,31.5199632 -14.8882046,31.2722094 -14.957224,31.069723 C-15.0450667,30.812721 -14.7955353,30.3542061 -14.5764111,30.3016375 C-14.2795798,30.2300858 -13.9779219,30.1502594 -13.6752987,30.1332233 C-10.2885257,29.9409585 -6.90078733,29.7496673 -3.51256632,29.5793061 C-0.583830555,29.431822 2.34876643,29.3544294 5.27460629,29.1680056 C7.8925138,29.0005649 10.5075254,28.8423724 13.133638,28.8418856 C15.5251815,28.8413989 17.9167249,28.7654664 20.3082684,28.7138714 C22.0052748,28.6768786 23.7022812,28.5663873 25.3978397,28.5926715 C27.8651596,28.6311245 30.3315142,28.758652 32.7973862,28.8642759 C33.0169931,28.8740109 33.238048,28.9908299 33.4480018,29.0833117 C33.7153914,29.2006176 33.9359636,29.7550215 33.8418463,30.1020715 C33.7583474,30.4101819 33.5952109,30.6929814 33.2515623,30.7465235 C32.8746106,30.8049331 32.48511,30.8570149 32.107193,30.8307306 C28.0205737,30.5454973 23.9315412,30.7017429 19.8425087,30.718779 C16.3712714,30.7333814 12.8990689,30.7216995 9.42734896,30.7216995 C9.42783161,30.751391 9.42783161,30.7810825 9.42783161,30.810774 C7.11592582,30.9232124 4.80353738,31.0341905 2.49211425,31.1490626 Z" transform="rotate(93 14.999 30.026)"/>
</svg>
